X: 25849
T: Master's Daughter, The
R: reel
M: 4/4
K: Gmajor
GBde dB3|ABcd BGFG|E3G DGBe|1 dB3 A3B:|2 E3G Dgfe|dBcA Gdef||
g3d edBA|Bged edBA|G3e dGBd|gedB ABcA|
d3e dB3|ABcd BGFG|E3G Dgfe|1 dBcA Gdef:|2 dBcA G3B||

